X: 17257
T: Herbie Smith's Four-Hand
R: barndance
M: 4/4
K: Dmajor
|:d2 c2 B2 A2|G2 F2 E2 D2|DE FG A3G|F2 E2 E4|
d2 c2 B2 A2|G2 F2 E2 D2|DE FG A2 d2|1 e2 d2 d4:|2 e2 d2 d3 e||
|:f2 f2 f2 f2|gf e2 f4|f2 f2 f2 f2|ed cB A3e|
f2 f2 f2 f2|gf e2 f4|f4 e2 c2|1 d6 ze:|2 d4 d4||

